X:1
T:Ulm (Wesley), 77.77
T:Ulm (Wesley), 77.77
T:Samuel Sebastian Wesley, 1864
T:Public Domain Courtesy of the Cyber Hymnal™
C:Samuel Sebastian Wesley, 1864
Z:Public Domain
Z:Courtesy of the Cyber Hymnal™
%%score ( 1 2 ) ( 3 4 )
L:1/8
Q:1/4=110
M:4/4
K:Eb
V:1 treble 
V:2 treble 
V:3 bass 
V:4 bass 
V:1
 [B,B]2 [B,E]2 | [B,B]2 [FB]2 [Ec]2 [B,d]2 | [B,e]4 [Dd]2 [Gc]2 | [F=A]2 [FB]2 [Gc]2 c2 | %4
 [DB]4 [EG]2 [EG]2 | x8 | [Ac]2 [GB]2 [FA]2 [=EG]2 | F4 [FB]2 [EG]2 | [EA]2 [EG]2 [EF]2 [DF]2 | %9
 E4 |] %10
V:2
 x4 | x8 | x8 | x6 (FE) | x8 | x8 | x8 | F4 x4 | x8 | E4 |] %10
V:3
 [E,B,]2 [E,G,]2 | [E,F,]2 [D,B,]2 (B,A,) ([B,,G,][A,,F,]) | [G,,E,]4 [B,,F,]2 [E,G,]2 | %3
 [E,C]2 [D,B,]2 [E,B,]2 [F,=A,]2 | [B,,B,]4 [E,B,]2 [E,B,]2 | [A,,C]2 [B,,_D]2 [C,C]2 (CA,) | %6
 [F,A,]4 [D,B,]2 B,2 | [C,A,]2 [B,,B,]2 [A,,C]2 (B,A,) | [E,G,]4 x4 | x4 |] %10
V:4
 x4 | x4 C,2 x2 | x8 | x8 | x8 | x6 C,2 | x6 (E,_D,) | x6 B,,2 | x8 | x4 |] %10

